modules/Home/Featured/svg/cleartrip.svg

<svg xmlns="http://www.w3.org/2000/svg" width="102" height="22" viewBox="0 0 102 22">
  <g fill="none" fill-rule="evenodd">
    <path fill="#204397" d="M93.1140161,12.2967825 C93.1140161,12.5826811 93.1382584,12.8445279 93.1862851,13.1068285 C93.4991461,14.297619 94.5319534,15.1557686 95.8039804,15.1557686 C97.677487,15.1557686 98.781191,13.6069242 98.781191,11.3201891 C98.781191,9.27079517 97.7730835,7.60259942 95.8762494,7.60259942 C94.6508771,7.60259942 93.5233884,8.48480087 93.2105274,9.77179845 C93.162043,10.0091397 93.1140161,10.2714403 93.1140161,10.5096892 L93.1140161,12.2967825 Z M90.1610475,9.41329066 C90.1610475,7.88895185 90.1125631,6.65005785 90.0645364,5.55365935 L92.6584466,5.55365935 L92.8025274,7.34075261 L92.8510116,7.34075261 C93.7145811,6.03015704 95.084034,5.29181251 96.8605721,5.29181251 C99.5505364,5.29181251 101.783559,7.57900144 101.783559,11.2003839 C101.783559,15.3935637 99.1187515,17.4193596 96.4525721,17.4193596 C94.9884376,17.4193596 93.7630655,16.799005 93.162043,15.8705152 L93.1140161,15.8705152 L93.1140161,21.8739323 L90.1610475,21.8739323 L90.1610475,9.41329066 Z M84.5181149,17.1570589 L87.4715409,17.1570589 L87.4715409,5.55365935 L84.5181149,5.55365935 L84.5181149,17.1570589 Z M85.9827066,3.8863712 C84.9983839,3.8863712 84.3493345,3.17207847 84.3493345,2.31392881 C84.3493345,1.40812938 85.022626,0.717434629 86.0069489,0.717434629 C87.0150565,0.717434629 87.6394064,1.40812938 87.6636485,2.31392881 C87.6636485,3.17207847 87.0150565,3.8863712 86.0069489,3.8863712 L85.9827066,3.8863712 Z M76.5456485,9.29484697 C76.5456485,7.72240456 76.5218636,6.57835628 76.450052,5.55365935 L78.995478,5.55365935 L79.1153165,7.74645636 L79.1866709,7.74645636 C79.7629936,6.12591038 81.1324466,5.29181251 82.404931,5.29181251 C82.6930924,5.29181251 82.8609579,5.31586431 83.1020071,5.36396787 L83.1020071,8.10314891 C82.8367156,8.05549914 82.5732539,8.03235497 82.212366,8.03235497 C80.8195856,8.03235497 79.8352629,8.91319499 79.5713435,10.2473885 C79.5242314,10.5096892 79.4999891,10.8196396 79.4999891,11.1286824 L79.4999891,17.1570589 L76.5456485,17.1570589 L76.5456485,9.29484697 Z M72.0791461,2.57622945 L72.0791461,5.55365935 L74.8894064,5.55365935 L74.8894064,7.74645636 L72.0791461,7.74645636 L72.0791461,12.8445279 C72.0791461,14.2735672 72.4642761,14.9883137 73.591765,14.9883137 C74.1205184,14.9883137 74.4086799,14.9642619 74.7448681,14.86987 L74.792895,17.0853574 C74.3615676,17.2519047 73.5679804,17.3953078 72.655469,17.3953078 C71.5508501,17.3953078 70.6630385,17.0372538 70.1105005,16.4423124 C69.4619085,15.7747618 69.1742045,14.7024151 69.1742045,13.1771687 L69.1742045,7.74645636 L67.5170475,7.74645636 L67.5170475,5.55365935 L69.1742045,5.55365935 L69.1742045,3.38627553 L72.0791461,2.57622945 Z M60.0728771,9.29484697 C60.0728771,7.72240456 60.048635,6.57835628 59.976366,5.55365935 L62.5227066,5.55365935 L62.6425454,7.74645636 L62.7138995,7.74645636 C63.2902225,6.12591038 64.659218,5.29181251 65.9321596,5.29181251 C66.220321,5.29181251 66.3881865,5.31586431 66.6287785,5.36396787 L66.6287785,8.10314891 C66.3639444,8.05549914 66.1004825,8.03235497 65.740052,8.03235497 C64.3468144,8.03235497 63.3624915,8.91319499 63.0981149,10.2473885 C63.0500879,10.5096892 63.0267605,10.8196396 63.0267605,11.1286824 L63.0267605,17.1570589 L60.0728771,17.1570589 L60.0728771,9.29484697 Z M54.622052,11.4867364 C52.532653,11.4626846 50.539765,11.8906249 50.539765,13.654574 C50.539765,14.7981684 51.2839534,15.3218621 52.2211641,15.3218621 C53.4204645,15.3218621 54.262079,14.5594658 54.5493255,13.7253679 C54.622052,13.5111709 54.622052,13.2969738 54.622052,13.0827767 L54.622052,11.4867364 Z M57.5036664,14.3693205 C57.5036664,15.4176154 57.5507785,16.4423124 57.6953165,17.1570589 L55.0295946,17.1570589 L54.8137021,15.8705152 L54.7418905,15.8705152 C54.0452716,16.7749532 52.8208144,17.4193596 51.2839534,17.4193596 C48.930635,17.4193596 47.6096664,15.727112 47.6096664,13.9640706 C47.6096664,11.0578884 50.2273615,9.5571476 54.5493255,9.58029177 L54.5493255,9.38969268 C54.5493255,8.62729638 54.2382941,7.36435059 52.1726799,7.36435059 C51.020034,7.36435059 49.818904,7.72240456 49.0266889,8.22250024 L48.4508234,6.31605565 C49.3148501,5.79190818 50.827469,5.29181251 52.677191,5.29181251 C56.4228324,5.29181251 57.5036664,7.65070302 57.5036664,10.1997388 L57.5036664,14.3693205 Z M43.719487,10.1280372 C43.7437291,9.0561443 43.26346,7.29310283 41.294357,7.29310283 C39.4693345,7.29310283 38.700904,8.93724679 38.580608,10.1280372 L43.719487,10.1280372 Z M38.580608,12.1769773 C38.6528771,14.2735672 40.310034,15.1798204 42.182626,15.1798204 C43.5516215,15.1798204 44.5121596,14.9642619 45.4246709,14.6552191 L45.8564556,16.6565095 C44.848348,17.0853574 43.4555676,17.3953078 41.774626,17.3953078 C37.9805005,17.3953078 35.747478,15.0840671 35.747478,11.5343861 C35.747478,8.31689216 37.7165811,5.29181251 41.4626799,5.29181251 C45.2568054,5.29181251 46.5050475,8.38904752 46.5050475,10.9385371 C46.5050475,11.4867364 46.457478,11.9146767 46.4089936,12.1769773 L38.580608,12.1769773 Z M30.7760071,17.1570589 L33.7298905,17.1570589 L33.7298905,0.217338951 L30.7760071,0.217338951 L30.7760071,17.1570589 Z M29.0955229,16.799005 C28.471173,17.0853574 27.2462584,17.3953078 25.781209,17.3953078 C22.1316215,17.3953078 19.754061,15.0600153 19.754061,11.4626846 C19.754061,7.98470519 22.1558637,5.29181251 26.2619355,5.29181251 C27.3423121,5.29181251 28.446931,5.53006137 29.1188501,5.81595998 L28.591469,8.03235497 C28.1107426,7.79319851 27.4145811,7.57900144 26.3579891,7.57900144 C24.1002674,7.57900144 22.7555139,9.2231454 22.7797561,11.343787 C22.7797561,13.7253679 24.3408591,15.0840671 26.3579891,15.0840671 C27.3660969,15.0840671 28.1107426,14.86987 28.6870655,14.6316212 L29.0955229,16.799005 Z"/>
    <path fill="#F26822" d="M16.9396386,15.0688191 C16.9396386,16.2319273 16.210087,17.1749389 15.3108404,17.1749389 L1.62866099,17.1749389 C0.72941435,17.1749389 -0.000137219733,16.2319273 -0.000137219733,15.0688191 L-0.000137219733,2.34133876 C-0.000137219733,1.17823057 0.72941435,0.23521894 1.62866099,0.23521894 L15.3108404,0.23521894 C16.210087,0.23521894 16.9396386,1.17823057 16.9396386,2.34133876 L16.9396386,15.0688191 Z M2.36383857,9.24202376 L3.90939014,6.78737991 L6.0738027,10.4691188 L13.0303857,4.64087126 L14.5754798,7.24799436 L5.7646009,12.7685605 L2.36383857,9.24202376 Z"/>
  </g>
</svg>

<svg xmlns="http://www.w3.org/2000/svg" viewBox="0 0 102 22">
  <defs/>
  <g fill="none" fill-rule="evenodd">
    <path fill="#204397" d="M93.114 12.297c0 .286.024.548.072.81.313 1.19 1.346 2.049 2.618 2.049 1.873 0 2.977-1.55 2.977-3.836 0-2.05-1.008-3.717-2.905-3.717-1.225 0-2.353.882-2.665 2.169a3.84 3.84 0 00-.097.738v1.787zm-2.953-2.884c0-1.524-.048-2.763-.096-3.86h2.593l.145 1.788h.048c.864-1.31 2.233-2.05 4.01-2.05 2.69 0 4.923 2.288 4.923 5.91 0 4.193-2.665 6.218-5.331 6.218-1.465 0-2.69-.62-3.291-1.548h-.048v6.003h-2.953V9.414zm-5.643 7.744h2.954V5.554h-2.954v11.603zm1.465-13.27c-.985 0-1.634-.715-1.634-1.573 0-.906.674-1.597 1.658-1.597 1.008 0 1.632.691 1.657 1.597 0 .858-.649 1.572-1.657 1.572h-.024zm-9.437 5.408c0-1.573-.024-2.717-.096-3.741h2.545l.12 2.192h.072c.576-1.62 1.945-2.454 3.218-2.454.288 0 .456.024.697.072v2.74a4.802 4.802 0 00-.89-.072c-1.392 0-2.377.881-2.64 2.215a5.14 5.14 0 00-.072.882v6.028h-2.954V9.295zm-4.467-6.719v2.978h2.81v2.192h-2.81v5.099c0 1.429.385 2.143 1.513 2.143.529 0 .817-.024 1.153-.118l.048 2.215c-.431.167-1.225.31-2.138.31-1.104 0-1.992-.358-2.544-.953-.65-.667-.937-1.74-.937-3.265v-5.43h-1.657V5.553h1.657V3.386l2.905-.81zM60.073 9.295c0-1.573-.024-2.717-.097-3.741h2.547l.12 2.192h.07c.577-1.62 1.946-2.454 3.22-2.454.287 0 .455.024.696.072v2.74a4.791 4.791 0 00-.889-.072c-1.393 0-2.378.881-2.642 2.215a5.05 5.05 0 00-.071.882v6.028h-2.954V9.295zm-5.45 2.192c-2.09-.024-4.083.404-4.083 2.168 0 1.143.744 1.667 1.681 1.667 1.2 0 2.041-.763 2.328-1.597.073-.214.073-.428.073-.642v-1.596zm2.88 2.882c0 1.049.048 2.073.192 2.788H55.03l-.216-1.286h-.072c-.697.904-1.921 1.548-3.458 1.548-2.353 0-3.674-1.692-3.674-3.455 0-2.906 2.617-4.407 6.94-4.384v-.19c0-.763-.312-2.026-2.377-2.026-1.153 0-2.354.358-3.146.859l-.576-1.907c.864-.524 2.376-1.024 4.226-1.024 3.746 0 4.827 2.359 4.827 4.908v4.17zM43.72 10.128c.025-1.072-.456-2.835-2.425-2.835-1.825 0-2.593 1.644-2.713 2.835h5.138zm-5.138 2.049c.072 2.097 1.729 3.003 3.602 3.003 1.369 0 2.33-.216 3.242-.525l.431 2.002c-1.008.428-2.4.738-4.081.738-3.794 0-6.028-2.31-6.028-5.86 0-3.218 1.97-6.243 5.716-6.243 3.794 0 5.042 3.097 5.042 5.647 0 .548-.048.976-.096 1.238h-7.828zm-7.805 4.98h2.954V.217h-2.954v16.94zm-1.68-.358c-.625.286-1.85.596-3.315.596-3.65 0-6.027-2.335-6.027-5.932 0-3.478 2.402-6.171 6.508-6.171 1.08 0 2.185.238 2.857.524l-.528 2.216c-.48-.239-1.176-.453-2.233-.453-2.258 0-3.602 1.644-3.578 3.765 0 2.381 1.56 3.74 3.578 3.74a5.91 5.91 0 002.33-.452l.408 2.167z"/>
    <path fill="#F26822" d="M16.94 15.069c0 1.163-.73 2.106-1.63 2.106H1.63c-.9 0-1.63-.943-1.63-2.106V2.34C0 1.178.73.235 1.63.235H15.31c.9 0 1.629.943 1.629 2.106V15.07zM2.364 9.242l1.545-2.455 2.165 3.682 6.956-5.828 1.545 2.607-8.81 5.52-3.401-3.526z"/>
  </g>
</svg>
